svg/home.svg

<svg xmlns="http://www.w3.org/2000/svg" viewBox="0 0 54 64" enable-background="new 0 0 54 64"><style type="text/css">.st0{fill:#343434;}</style><title>home</title><desc>Created with Sketch.</desc><path class="st0" d="M52.5 20.8l-24.9-20.8-26 20.8c-.9.7-1.6 2.1-1.6 3.2v38c0 1.1.9 2 2 2h18v-17c0-3.9 3.1-7 7-7s7 3.1 7 7v17h18c1.1 0 2-.9 2-2v-38c0-1.1-.7-2.5-1.5-3.2zm-2.5 39.2h-12v-13c0-6.1-4.9-11-11-11s-11 4.9-11 11v13h-12l.1-36.1 23.4-18.7 22.4 18.7c-.1-.1.1.2.1.1v36z"/></svg>

<?xml version="1.0" encoding="utf-8"?>
<!-- Generator: Adobe Illustrator 21.0.0, SVG Export Plug-In . SVG Version: 6.00 Build 0)  -->
<svg version="1.1" id="Layer_1" xmlns="http://www.w3.org/2000/svg" xmlns:xlink="http://www.w3.org/1999/xlink" x="0px" y="0px"
	 viewBox="0 0 54 64" style="enable-background:new 0 0 54 64;" xml:space="preserve">
<style type="text/css">
	.st0{fill:#343434;}
</style>
<title>home</title>
<desc>Created with Sketch.</desc>
<path class="st0" d="M52.5,20.8L27.6,0l-26,20.8C0.7,21.5,0,22.9,0,24v38c0,1.1,0.9,2,2,2h18V47c0-3.9,3.1-7,7-7c3.9,0,7,3.1,7,7v17
	h18c1.1,0,2-0.9,2-2V24C54,22.9,53.3,21.5,52.5,20.8z M50,60H38V47c0-6.1-4.9-11-11-11c-6.1,0-11,4.9-11,11v13H4
	c0,0,0.1-36.1,0.1-36.1L27.5,5.2l22.4,18.7C49.8,23.8,50,24.1,50,24V60z"/>
</svg>
